svgs/sharp-solid/hotel.svg

<svg xmlns="http://www.w3.org/2000/svg" viewBox="0 0 512 512"><!--! Font Awesome Pro 6.6.0 by @fontawesome - https://fontawesome.com License - https://fontawesome.com/license (Commercial License) Copyright 2024 Fonticons, Inc. --><path d="M0 0L512 0l0 64-32 0 0 384 32 0 0 64-208 0 0-96-96 0 0 96L0 512l0-64 32 0L32 64 0 64 0 0zM96 96l0 64 64 0 0-64L96 96zm192 0l-64 0 0 64 64 0 0-64zm64 0l0 64 64 0 0-64-64 0zM160 192l-64 0 0 64 64 0 0-64zm64 0l0 64 64 0 0-64-64 0zm192 0l-64 0 0 64 64 0 0-64zM352 384c0-53-43-96-96-96s-96 43-96 96l192 0z"/></svg>

<svg xmlns="http://www.w3.org/2000/svg" viewBox="0 0 512 512"><!--! Font Awesome Pro 6.4.0 by @fontawesome - https://fontawesome.com License - https://fontawesome.com/license (Commercial License) Copyright 2023 Fonticons, Inc. --><path d="M0 0H512V64H480V448h32v64H304V416H208v96H0V448H32V64H0V0zM96 96v64h64V96H96zm192 0H224v64h64V96zm64 0v64h64V96H352zM160 192H96v64h64V192zm64 0v64h64V192H224zm192 0H352v64h64V192zM352 384c0-53-43-96-96-96s-96 43-96 96H352z"/></svg>
